X: 9150
T: Daithi Sproule's
R: mazurka
M: 3/4
K: Gmajor
|:DG Bd BG|(3FFF d2 dB|c2 cB cd|cB AG (3FED|
GB de dG|(3FFF d2 dB|Bc- cA FA|1 G4 GE:|2 G6||
|:g2- ga gf|e2 ^c2 d2|Bc- cd cA|fd cA FA|
(3GBd ga gf|e2 ^c2 d2|Bc- cA FA|1 G6:|2 G4 (3GFE||

